X: 33709
T: Raoulf
R: jig
M: 6/8
K: Bminor
fec Bec|B^Az zzF|fec Bb^a|fgf cef|
z3zgf|ece B^Ae|GcF z3|F^AB cGe:|
d2d cdd|Bd=f- fed|edc- cdc|^Acd ^A2=A|
d2d cde-|edc ^A3|A2A cAd|AeA =fAg||
a2a g=fe|=fed c^A=A|a2a =fga|^a=ag ^a=ag|
a2a g=fe|=fed c^A=A|cde dc^A|A^Ac de=f||

